X:1
T:I Know My Name Is There
T:I Know My Name Is There
T:Barney Elliott Warren
T:Daniel Sidney Warner, 1893
T:Public Domain Courtesy of the Cyber Hymnal™
T:Public Domain Courtesy of the Cyber Hymnal™
C:Barney Elliott Warren
Z:Public Domain
Z:Courtesy of the Cyber Hymnal™
%%score ( 1 2 ) ( 3 4 )
L:1/8
Q:1/4=100
M:6/8
K:Db
V:1 treble 
V:2 treble 
V:3 bass 
V:4 bass 
V:1
 [FA] | [Fd]2 [Fd] ([Bd][Ac])[GB] | [FA]2 [=E=G] [FA]2 [FA] | [Ec]2 [EB] (AB)[Gc] | %4
w: 1.~My|name is in * the|Book of Life, O|bless the name * of|
w: 2.~My|name once stood * with|sin- ners, lost, And|bore a pain- * ful|
w: 3.~Yet|in- ward trou- * ble|oft- en cast A|sha- dow o’er * my|
w: 4.~While|o- thers climb * thro’|world- ly strife, To|carve a name * of|
 [Fd]3 [FA]2 [FA] | [Fd]2 [Fd] ([Bd][Ac])[GB] | [FA]2 [=E=G] [FA]2 [FA] | [Ec]2 [EB] (AB)[Gc] | %8
w: Je- sus; I|rise a- bove * all|doubt and strife, And|read my ti- * tle|
w: rec- ord; But|by His blood * the|Sav- ior crossed, And|placed it on * His|
w: ti- tle; But|now with full * sal-|va- tion blest, Praise|God! it’s ev- * er|
w: hon- or, High|up in Heav- * en’s|Book of Life, My|name is writ- * ten|
 [Fd]3- [Fd]2 ||"^Refrain" ([FA]/[EG]/) | ([DF]3- [DF]D)[DF] | [FA]3- [FA]2 [Fd] | %12
w: clear. *||||
w: roll. *|I *|know, * * I|know * my|
w: clear. *||||
w: there. *||||
 ([Gc]3- c)B[Gc] | d3- [Fd]2 [FA] | ([Af]3- fe)[Ad] | ([Bd]3- [Bd][Ac])[GB] | [FA]2 [FA] (AB)[Gc] | %17
w: |||||
w: name * is *|there (is there);|I * * *|know, * * I|know, my name * is|
w: |||||
w: |||||
 [Fd]3- [Fd]2 |] %18
w: |
w: writ- *|
w: |
w: |
V:2
 x | x6 | x6 | x3 G2 x | x6 | x6 | x6 | x3 G2 x | x5 || x | x6 | x6 | x3 G2 x | F2 G x3 | x3 A2 x | %15
 x6 | x3 G2 x | x5 |] %18
V:3
 [D,A,] | [D,A,]2 [D,A,] [D,D]2 [D,D] | [D,D]2 [D,B,] [D,A,]2 [D,A,] | [A,,A,]2 [A,,D] (CC)[C,A,] | %4
w: ~|~ ~ ~ ~|~ ~ ~ ~|~ ~ ~ * ~|
 [D,A,]3 [D,D]2 [D,D] | [D,A,]2 [D,A,] [D,D]2 [D,D] | [D,D]2 [D,B,] [D,A,]2 [D,A,] | %7
w: ~ ~ ~|~ ~ ~ ~|~ ~ ~ ~|
 [A,,A,]2 [A,,D] (CD)[A,,A,] | [D,A,]3- [D,A,]2 || z | z2 [D,A,] (A,F,)[D,A,] | %11
w: ~ ~ ~ * ~|~ *||I know, * I|
 [D,D]2 [D,D] [D,D]2 z | z2 A, (CD)A, | [D,A,]2 [D,B,] [D,A,]2 z | z2 [D,D] D2 [F,D] | %15
w: tru- ly know|I know * my|name is there;|I know my|
 [G,D]2 [G,D] [G,D]2 [G,D] | [A,D]2 [A,D] (CD)[A,,A,] | [D,A,]3- [D,A,]2 |] %18
w: name is there. *|||
V:4
 x | x6 | x6 | x3 A,,2 x | x6 | x6 | x6 | x3 A,,2 x | x5 || x | x3 D,2 x | x6 | x2 A, A,2 A, | x6 | %14
 x3 (D,E,) x | x6 | x3 [A,,A,]2 x | x5 |] %18

